X:1
T:Malagueña
T:Malagueña
T:Pablo de Sarasate, arr. Blum
C:Pablo de Sarasate, arr. Blum
%%score 1 2 3 4
L:1/8
Q:1/4=138
M:3/4
K:C
V:1 treble nm="Violin" snm="Vln."
V:2 treble transpose=-2 nm="B♭ Trumpet" snm="B♭ Tpt."
V:3 treble transpose=-2 nm="B♭ Clarinet" snm="B♭ Cl."
V:4 bass nm="Violoncello" snm="Vc."
V:1
 z6 | z6 | z6 | z6 |!mf! c2 c2 c2 | d2 e2 d2 | c6- | c2 (3_BcB (3_ABA | G6- | G6 | z6 | z6 | z6 | %13
 z6 | z6 | z6 | z6 | z2 (FG) _A_B | G6 | z2!pp! (FG) _A_B | G6 | z6 | z6 | z6 | z6 | z6 | z6 | z6 | %28
 z6 | z6 | z6 |!f! (3_BcB _A2 B2 | !>!c_A GA GA |[Q:1/4=104]"^ritardando"!>(! G_A GA GA!>)! | %34
!p![Q:1/4=69] !fermata!g6 |[Q:1/4=138]!mf! c2 c2 c2 | d2 e2 d2 | c6- | c2 (3_BcB (3_ABA | G6 | %40
 z2 (3_BcB (3_ABA | G6 | z6 |!8va(!!<(! (3!>!_bc'b (3_aba (3gag!8va)!!<)! | (3fgf _e2 _d2 | %45
!ff! c4 !>!_a2 | !>!!fermata!g6 |] %47
V:2
 z6 | z6 | z6 | z6 | z6 | z6 | z6 | z6 | z6 | z6 | z6 | z6 |!mf! d2 d2 d2 | e2 ^f2 e2 | d6- | %15
 d2 (3cdc (3_BcB | A6 | z2 (GA) _Bc | ^F6 | z2!pp! (GA) _Bc | ^F6 | z6 | z6 | z6 | z6 | z6 | z6 | %27
 z6 | z6 | z6 | z6 | z6 | !>!A_B AB AB |!>(! A_B AB AB!>)! |!p! !fermata!A6 | z6 | z6 | z6 | z6 | %39
 z6 | z6 | z6 | z6 | z6 | z6 |!ff! d4 !>!g2 | !>!!fermata!^f6 |] %47
V:3
!mp! (D2 A2) A2 | (D2 _B4) | (D2 A2) A2 | (D2 _B4) |!mp! (D2 A2) A2 | (D2 _B4) | (D2 A2) A2 | %7
 (D2 _B4) | (D2 A2) A2 | (D2 _B4) | (D2 A2) A2 | (D2 _B4) | (D2 A2) A2 | (D2 _B4) | (D2 A2) A2 | %15
 (D2 _B4) | (D2 A2) A2 | (c2 _g4) | (D2 A2) A2 | (c2 _g4) | (D2 A2) A2 | (D2 A2) D2 | G2 G2 G2 | %23
 (3GAG ^F2 G2 | A4 ^F2 | D4 A,2 | _E6 | G6 | D2 ^F2 A2 |!mf! _E6 | D2 ^F2 A2 |!f! _E6 | %32
 !>!d_B AB AB | A6 | z6 |!mp! (D2 A2) A2 | (D2 _B4) | (D2 A2) A2 | (D2 _B4) |!mp! (D2 A2) A2 | %40
 (D2 _B4) | (D2 A2) A2 | B,6 | B,6 | B,6 |!ff! d4 !>!_e2 | !>!!fermata!d6 |] %47
V:4
!mp! ((C,2 E,2)) E,2 | (C,2 F,4) | (C,2 E,2) E,2 | (C,2 F,4) |!mp! ((C,2 E,2)) E,2 | (C,2 F,4) | %6
 (C,2 E,2) E,2 | (C,2 F,4) | ((C,2 E,2)) E,2 | (C,2 F,4) | (C,2 E,2) E,2 | (C,2 F,4) | %12
 ((C,2 E,2)) E,2 | (C,2 F,4) | (C,2 E,2) E,2 | (C,2 F,4) | (C,2 G,2) G,2 | z6 | (C,2 G,2) G,2 | %19
 z6 | (C,2 G,2) G,2 | (C,2 G,2) z2 | _D,2 F,2 _A,2 | _D,6 | C,2 E,2 G,2 | C,2 E,2 C2 | %26
 _B,2 B,2 B,2 | (3_B,CB, _A,2 B,2 | C6 |!mf! (3_B,CB, _A,2 B,2 | C6 |!f! _D,6 | C,6 | %33
!>(! !>!G,_A, G,A, G,A,!>)! | z6 |!mp! ((C,2 E,2)) E,2 | (C,2 F,4) | (C,2 E,2) E,2 | (C,2 F,4) | %39
!mp! ((C,2 E,2)) E,2 | (C,2 F,4) | (C,2 E,2) E,2 | C,,6 | C,,6 | C,,6 |!ff! !>![C,,G,,]6 | %46
 !>!!fermata!C,,6 |] %47

